X: 1
T: The Drunken Gauger
R: jig
M: 6/8
L: 1/8
K: Gmaj
|:D|GAB c2A|BAG AGE|GBd g2e|dBe dBG|
c2A BdB|AGA BGE|DE/F/G AGA|BGG G2:|
|:D|GBd g2e|dBe dBG|Ace a2a|agb age|
dBd g2e|dBe dBG|c2A BdB|AGA BGE|
GAB c2A|BAG AGE|GBd g2e|dBe dBG|
c2A BdB|AGA AGE|DE/F/G AGA|BGG G2:|


Tune 2180	Setting 15550

